docs/svgs/network-wifi-3-bar-outlined-filled.svg

<?xml version="1.0" encoding="UTF-8"?>
<svg xmlns="http://www.w3.org/2000/svg" xmlns:xlink="http://www.w3.org/1999/xlink" width="24px" height="24px" viewBox="0 0 24 24" version="1.1">
<g id="surface1">
<path style=" stroke:none;fill-rule:nonzero;fill:rgb(0%,0%,0%);fill-opacity:1;" d="M 12 21 L 0 9 C 1.601562 7.367188 3.433594 6.125 5.5 5.273438 C 7.566406 4.425781 9.734375 4 12 4 C 14.285156 4 16.457031 4.425781 18.523438 5.273438 C 20.589844 6.125 22.417969 7.367188 24 9 Z M 5.800781 11.949219 C 6.683594 11.316406 7.648438 10.820312 8.699219 10.460938 C 9.75 10.105469 10.851562 9.925781 12 9.925781 C 13.148438 9.925781 14.25 10.105469 15.300781 10.460938 C 16.351562 10.820312 17.316406 11.316406 18.199219 11.949219 L 21.101562 9.050781 C 19.800781 8.066406 18.378906 7.3125 16.839844 6.785156 C 15.296875 6.261719 13.683594 6 12 6 C 10.316406 6 8.703125 6.261719 7.160156 6.785156 C 5.621094 7.3125 4.199219 8.066406 2.898438 9.050781 Z M 5.800781 11.949219 "/>
</g>
</svg>

<svg xmlns="http://www.w3.org/2000/svg" height="24" width="24"><path d="M12 21 0 9q2.4-2.45 5.5-3.725T12 4q3.425 0 6.525 1.275Q21.625 6.55 24 9Zm-6.2-9.05q1.325-.95 2.9-1.488 1.575-.537 3.3-.537 1.725 0 3.3.537 1.575.538 2.9 1.488l2.9-2.9q-1.95-1.475-4.262-2.263Q14.525 6 12 6t-4.838.787Q4.85 7.575 2.9 9.05Z"/></svg>
